dhis-2/dhis-support/dhis-support-system/src/main/resources/SVGs/fever_outline.svg

<?xml version="1.0" encoding="UTF-8" standalone="no"?>
<!-- Created with Inkscape (http://www.inkscape.org/) -->
<svg id="svg8" xmlns:rdf="http://www.w3.org/1999/02/22-rdf-syntax-ns#" xmlns="http://www.w3.org/2000/svg" xmlns:osb="http://www.openswatchbook.org/uri/2009/osb" height="48" width="48" version="1.1" xmlns:cc="http://creativecommons.org/ns#" viewBox="0 0 12.7 12.7" xmlns:dc="http://purl.org/dc/elements/1.1/">
 <title id="title4753">UIO-icon</title>
 <metadata id="metadata5">
  <rdf:RDF>
   <cc:Work rdf:about="">
    <dc:format>image/svg+xml</dc:format>
    <dc:type rdf:resource="http://purl.org/dc/dcmitype/StillImage"/>
    <dc:title>UIO-icon</dc:title>
    <dc:creator>
     <cc:Agent>
      <dc:title>Joaquín Urbano</dc:title>
     </cc:Agent>
    </dc:creator>
    <dc:rights>
     <cc:Agent>
      <dc:title>GPL</dc:title>
     </cc:Agent>
    </dc:rights>
   </cc:Work>
  </rdf:RDF>
 </metadata>
 <g id="layer1" fill="#333" transform="translate(0,-284.3)">
  <path id="path26410" d="m23.984 4c-2.486 0-4.156 1.2924-4.156 3.2168v23.871c-1.788 1.311-2.947 3.394-2.947 5.734 0 3.958 3.315 7.178 7.389 7.178 4.073 0 7.386-3.22 7.386-7.178 0-2.34-1.158-4.423-2.947-5.734v-23.871c0-1.985-1.527-3.217-3.984-3.217h-0.741zm0.196 0.5059c2.221 0.0024 3.965 0.6566 4.015 2.541v24.305a6.8754 6.6738 0 0 1 2.946 5.459 6.8754 6.6738 0 0 1 -6.875 6.673 6.8754 6.6738 0 0 1 -6.875 -6.673 6.8754 6.6738 0 0 1 2.951 -5.456v-24.308c0.002-1.6625 1.775-2.5434 3.838-2.5411zm-1.619 2.8125v0.5136h4.14v-0.5058c-0.015-0.0019-0.028-0.0078-0.043-0.0078h-4.097zm2.048 1.3281v0.5137h2.092v-0.5059c-0.015-0.0019-0.028-0.0078-0.043-0.0078h-2.049zm-2.048 1.3281v0.5134h4.14v-0.5056c-0.015-0.0019-0.028-0.0078-0.043-0.0078h-4.097zm2.048 1.3284v0.513h2.092v-0.505c-0.015-0.002-0.028-0.008-0.043-0.008h-2.049zm-2.048 1.326v0.514h4.14v-0.506c-0.015-0.002-0.028-0.008-0.043-0.008h-4.097zm2.048 1.328v0.514h2.092v-0.506c-0.015-0.002-0.028-0.008-0.043-0.008h-2.049zm-1.591 1.504c-0.315-0.003-0.68 0.126-1.141 0.488v16.301c-1.713 0.849-2.889 2.579-2.889 4.572 0 2.829 2.368 5.131 5.28 5.131 2.911 0 5.281-2.302 5.281-5.131 0-1.993-1.178-3.723-2.891-4.572v-16.301c-2.023 1.232-2.517-0.474-3.64-0.488zm-0.164 0.559c0.983-0.171 1.298 1.403 3.275 0.75v15.798c1.748 0.725 2.883 2.387 2.887 4.229 0 2.546-2.131 4.609-4.758 4.609-2.628 0-4.758-2.063-4.758-4.609 0.003-1.842 1.137-3.505 2.885-4.231v-15.656-0.14-0.559c0.174-0.107 0.328-0.167 0.469-0.191zm3.628 18.888c-0.737 0.001-1.335 0.599-1.336 1.336 0 0.739 0.598 1.338 1.336 1.338 0.74 0.001 1.339-0.599 1.338-1.338 0-0.738-0.599-1.336-1.338-1.336zm0 0.514c0.455-0.001 0.824 0.368 0.825 0.822 0 0.456-0.369 0.825-0.825 0.824-0.454 0-0.822-0.369-0.822-0.824 0.001-0.454 0.369-0.822 0.822-0.822z" transform="matrix(.26458 0 0 .26458 0 284.3)" stroke-width=".067003"/>
 </g>
</svg>

<svg width="48" height="48" viewBox="0 0 48 48" fill="none" xmlns="http://www.w3.org/2000/svg">
<path d="M23.9844 4C21.4984 4 19.8281 5.29242 19.8281 7.2168V31.0879C18.0401 32.3989 16.8809 34.4823 16.8809 36.8223C16.8809 40.7802 20.1955 44 24.2695 44C28.3424 44 31.6562 40.7802 31.6562 36.8223C31.6562 34.4823 30.498 32.3989 28.709 31.0879V7.2168C28.709 5.23182 27.1815 4 24.7246 4H23.9844ZM24.1797 4.50586C26.4006 4.50826 28.1453 5.1625 28.1953 7.04688V31.3516C29.1022 31.9647 29.8427 32.7802 30.3555 33.7305C30.8683 34.6807 31.1377 35.7377 31.1406 36.8105C31.1404 38.5802 30.4163 40.278 29.127 41.5293C27.8377 42.7807 26.0888 43.4843 24.2656 43.4844C22.4423 43.4843 20.6936 42.7807 19.4043 41.5293C18.1151 40.278 17.3908 38.5802 17.3906 36.8105C17.3945 35.7378 17.666 34.6821 18.1797 33.7324C18.6934 32.7827 19.4344 31.9678 20.3418 31.3555V7.04688C20.3438 5.3844 22.1167 4.50356 24.1797 4.50586ZM22.5605 7.31836V7.83203H26.7012V7.32617C26.6862 7.32427 26.6732 7.31836 26.6582 7.31836H22.5605ZM24.6094 8.64648V9.16016H26.7012V8.6543C26.6862 8.6524 26.6732 8.64648 26.6582 8.64648H24.6094ZM22.5605 9.97461V10.4883H26.7012V9.98242C26.6862 9.98052 26.6732 9.97461 26.6582 9.97461H22.5605ZM16.8145 10.3691L14.7285 13.2539H16.166V22.9395H17.3867V13.2539H18.7793L16.8145 10.3691ZM24.6094 11.3027V11.8164H26.7012V11.3105C26.6862 11.3085 26.6732 11.3027 26.6582 11.3027H24.6094ZM22.5605 12.6289V13.1426H26.7012V12.6367C26.6862 12.6347 26.6732 12.6289 26.6582 12.6289H22.5605ZM24.6094 13.957V14.4707H26.7012V13.9648C26.6862 13.9628 26.6732 13.957 26.6582 13.957H24.6094ZM23.0176 15.4609C22.7026 15.4579 22.338 15.5872 21.877 15.9492V32.25C20.164 33.099 18.9883 34.8293 18.9883 36.8223C18.9883 39.6512 21.3556 41.9531 24.2676 41.9531C27.1785 41.9531 29.5488 39.6512 29.5488 36.8223C29.5488 34.8293 28.3712 33.099 26.6582 32.25V15.9492C24.6353 17.1812 24.1406 15.4749 23.0176 15.4609ZM22.8535 16.0195C23.8365 15.8485 24.152 17.4225 26.1289 16.7695V32.5684C27.8769 33.2934 29.0116 34.9549 29.0156 36.7969C29.0156 39.3428 26.8847 41.4062 24.2578 41.4062C21.6298 41.4062 19.5 39.3428 19.5 36.7969C19.503 34.9549 20.6368 33.2924 22.3848 32.5664V16.9102V16.7695V16.2109C22.5588 16.1039 22.7125 16.0435 22.8535 16.0195ZM26.4824 34.9082C25.7454 34.9092 25.1475 35.5071 25.1465 36.2441C25.1465 36.9831 25.7444 37.582 26.4824 37.582C27.2224 37.583 27.8213 36.9831 27.8203 36.2441C27.8203 35.5061 27.2214 34.9082 26.4824 34.9082ZM26.4824 35.4219C26.9374 35.4209 27.3056 35.7901 27.3066 36.2441C27.3066 36.7001 26.9384 37.0694 26.4824 37.0684C26.0284 37.0684 25.6602 36.6991 25.6602 36.2441C25.6612 35.7901 26.0294 35.4219 26.4824 35.4219Z" fill="#333333"/>
</svg>
